X:465
T:Stone Frigate, The
M:4/4
L:1/8
R:reel
K:Dmaj
|B|"D" AddA "A7"d2 Ad|"D" AddG "G" B2dB|"D"AddA dABd|"E7" feef "A7" e2 ef|
"D" AddA "A7" d2 Ad|"D" AddG "G" B2dB|"D" AddA "G" Beed|"A7" caac "D" d2 d:|
|:g|"D" faaf "A7" a2fa|"D" aAdG "G" B2 dB|"D" AddA dABd|
[1"E7"feef "A7" e2 eg|"D" faaf a2fa|"D" aAdG "G" B2 dB|"D" AddA "G" Beed|"A7" caac "D" d2 d:|
[2"E7"feef "A7" e2 ef|"D" AddA d2 Ad|"E7" AddG "A7" B2dB|"D" AddA Beed|"A7" caac "D" d2 d|]

%%newpage

